X: 1468
T: George Bailey's 1st Reel
B: australian traditional tunes wiki
M:4/4
L:1/8
R: Reel
Q: 1/4=100
K:G
V:1 
gf|:"G"e2d2BG gf|e2d2G2gf|e2d2Bd BG|"D"AG EF"G"G2gf|
"G"e2d2BG gf|e2d2G2gf|e2d2Bd BG|1"D"AG EF"G"G2gf:|2"D"AG EF"G"G3B||
|:"G"d2G2Bd Bd|"D"A2B2c2Bc|"G"d2G2Bd BG|"D"AG EF"G"G3B|
"G"d2G2Bd Bd|"D"A2B2c2Bc|"G"d2G2Bd BG|1"D"AG EF"G"G3B:|2"D"AG EF"G"G4||
% abcbook-tune_id 6342d53ab7f73cf00c8f0d95


% abcbook-boost 0
% abcbook-tablature 
% abcbook-transpose 
% abcbook-lastupdated 1665324366597
% abcbook-soundfonts 
% abcbook-repeats 1
% NFF Book 2009

